X: 6285
T: Carolan's Welcome
R: waltz
M: 3/4
K: Eminor
V:1
GF|:E2 GA B2|E2 GA B2|AB AG FE|(3DEF D2 B2|
V:2
GF|:E3F G2|G3F E2|F3G FE|D4 B2|
V:1
G3F E2|A3G F2|GB B2 D2|E4 GF|
V:2
G3D CB,|C3D EF|G3G FG|E4 GF|
V:1
E2 GA B2|E2 GA B2|AB AG FE|(3DEF D2 B2|
V:2
E3F G2|G3F E2|F3G FE|D4 B2|
V:1
d3c B2|e3d BA|GB AG FG|1 E4 GF:|2 E4 B2||
V:2
G6|A6|G4 FG|1 E6:|2 E6||
V:1
|:B2 ef g2|B2 ef g2|gf ed ef|g2 B2 B2|
V:2
|:e6|e6|e6|d6|
V:1
c2 ec BA|B2 dB AG|A2 B2 d2|e6|
V:2
A6|G6|F6|GF ED B,D|
V:1
ed Bd e2|dBAB d2|BA GA BG|A2 F2 (3DEF|
V:2
c6|B6|G6|FG AB cA|
V:1
G3F E2|A3G F2|GB B2 D2|1 E4 E2:|2 E6||
V:2
BA GF GB|cB cD EF|G4 FG|1 E6:|2 E6||

